gkit/src/components/icons/assets/video_24_filled.svg

<svg width="24" height="24" viewBox="0 0 24 24" fill="none" xmlns="http://www.w3.org/2000/svg">
<path d="M16 16.25C16 18.0449 14.5449 19.5 12.75 19.5H5.25C3.45507 19.5 2 18.0449 2 16.25V7.75C2 5.95507 3.45507 4.5 5.25 4.5H12.75C14.5449 4.5 16 5.95507 16 7.75V16.25ZM21.762 5.89334C21.9156 6.07414 22 6.30368 22 6.54096V17.4588C22 18.0111 21.5523 18.4588 21 18.4588C20.7627 18.4588 20.5332 18.3744 20.3524 18.2208L17 15.3709V8.62794L20.3524 5.77899C20.7732 5.42132 21.4043 5.47252 21.762 5.89334Z" fill="#212121"/>
</svg>

<svg xmlns="http://www.w3.org/2000/svg" width="24" height="24" preserveAspectRatio="xMidYMid meet" viewBox="0 0 24 24">
<path fill="currentColor" d="M16 16.25a3.25 3.25 0 0 1-3.25 3.25h-7.5A3.25 3.25 0 0 1 2 16.25v-8.5A3.25 3.25 0 0 1 5.25 4.5h7.5A3.25 3.25 0 0 1 16 7.75v8.5Zm5.762-10.357a1 1 0 0 1 .238.648v10.918a1 1 0 0 1-1.648.762L17 15.37V8.628l3.352-2.849a1 1 0 0 1 1.41.114Z"/>
</svg>
